svgs/solid/grip-vertical.svg

<svg xmlns="http://www.w3.org/2000/svg" viewBox="0 0 320 512"><!-- Font Awesome Pro 6.0.0-alpha2 by @fontawesome - https://fontawesome.com License - https://fontawesome.com/license (Commercial License) --><path d="M96 32H32C14.375 32 0 46.375 0 64V128C0 145.625 14.375 160 32 160H96C113.625 160 128 145.625 128 128V64C128 46.375 113.625 32 96 32ZM96 192H32C14.375 192 0 206.375 0 224V288C0 305.625 14.375 320 32 320H96C113.625 320 128 305.625 128 288V224C128 206.375 113.625 192 96 192ZM96 352H32C14.375 352 0 366.375 0 384V448C0 465.625 14.375 480 32 480H96C113.625 480 128 465.625 128 448V384C128 366.375 113.625 352 96 352ZM288 32H224C206.375 32 192 46.375 192 64V128C192 145.625 206.375 160 224 160H288C305.625 160 320 145.625 320 128V64C320 46.375 305.625 32 288 32ZM288 192H224C206.375 192 192 206.375 192 224V288C192 305.625 206.375 320 224 320H288C305.625 320 320 305.625 320 288V224C320 206.375 305.625 192 288 192ZM288 352H224C206.375 352 192 366.375 192 384V448C192 465.625 206.375 480 224 480H288C305.625 480 320 465.625 320 448V384C320 366.375 305.625 352 288 352Z"/></svg>

<svg xmlns="http://www.w3.org/2000/svg" viewBox="0 0 320 512"><!--! Font Awesome Pro 6.0.0-alpha3 by @fontawesome - https://fontawesome.com License - https://fontawesome.com/license (Commercial License) --><path d="M96 32H32c-17.62 0-32 14.38-32 32v64c0 17.62 14.38 32 32 32h64c17.62 0 32-14.38 32-32V64C128 46.38 113.6 32 96 32zM96 192H32c-17.62 0-32 14.38-32 32v64c0 17.62 14.38 32 32 32h64c17.62 0 32-14.38 32-32V224C128 206.4 113.6 192 96 192zM96 352H32c-17.62 0-32 14.38-32 32v64c0 17.62 14.38 32 32 32h64c17.62 0 32-14.38 32-32v-64C128 366.4 113.6 352 96 352zM288 32h-64c-17.62 0-32 14.38-32 32v64c0 17.62 14.38 32 32 32h64c17.62 0 32-14.38 32-32V64C320 46.38 305.6 32 288 32zM288 192h-64c-17.62 0-32 14.38-32 32v64c0 17.62 14.38 32 32 32h64c17.62 0 32-14.38 32-32V224C320 206.4 305.6 192 288 192zM288 352h-64c-17.62 0-32 14.38-32 32v64c0 17.62 14.38 32 32 32h64c17.62 0 32-14.38 32-32v-64C320 366.4 305.6 352 288 352z"/></svg>
